X:38
T:Ma tante mariez-moi donc. [FJ38]
S:Festin joyeux.  Music page 19.
Z:transcribed by Eric Conrad, 2021.
N:NB The meter is given simply as "2"
N:NB In the MS, the G is the bottom line of the staff
N:NB Repeat marks were added at beginning.  A repeat before the last measure is treated as a second ending.
N:NB The MS repeat mark is 4 vertical dots enclosed by bars on both sides.
N:NB The plus signs seem to indicate some kind of roll or trill.
N:NB1 MS has "|c3/::c/A/B|" (short measure).  Here, rest added to fill measure.
N:NB2 MS has "|c3/-::c4||".  Taking into account the pickup measures, here simply "|c3:|".
M:2/2
L:1/4
% K:C clef=treble1 % staff GBDfa
K:C % empty key sig, ending on second space in MS (i.e. ending on C) -> C major
|: e/ ef | dc dB | c3/ :: "_NB1"z/ c/A/B | c>c d/c/d |
dd/c/ AB | c>d "^+"d2 | "_NB2"c3/ :|

